%
(MiddleDinPlate)
(T1  D=3.175 CR=0 - ZMIN=-13.5 - flat end mill)
G90 G94
G17
G21

(2D Contour1)
M9
T1 M6
S5000 M3
G54
M9
G0 X-16.568 Y127.54
Z5
Z3
G1 Z2.837 F333.3
G19 G2 Y127.223 Z2.519 J-0.317
G1 Y126.905 F1000
G17 G3 X-16.25 Y126.588 I0.318
G1 X-0.109 Z-3.356
G18 G2 X0 Z-3.375 I0.109 K0.298
G1 X345
G17 G2 X346.587 Y125 J-1.588
G1 Y-125
G2 X345 Y-126.588 I-1.587
G1 X-345
G2 X-346.587 Y-125 J1.588
G1 Y125
G2 X-345 Y126.588 I1.587
G1 X0
X63.787 Z-6.75
X345
G2 X346.587 Y125 J-1.588
G1 Y-125
G2 X345 Y-126.588 I-1.587
G1 X-345
G2 X-346.587 Y-125 J1.588
G1 Y125
G2 X-345 Y126.588 I1.587
G1 X0
X63.787
X127.573 Z-10.125
X345
G2 X346.587 Y125 J-1.588
G1 Y-125
G2 X345 Y-126.588 I-1.587
G1 X-345
G2 X-346.587 Y-125 J1.588
G1 Y125
G2 X-345 Y126.588 I1.587
G1 X63.787
X127.573
X191.36 Z-13.5
X345
G2 X346.587 Y125 J-1.588
G1 Y-125
G2 X345 Y-126.588 I-1.587
G1 X-345
G2 X-346.587 Y-125 J1.588
G1 Y125
G2 X-345 Y126.588 I1.587
G1 X127.573
X191.36
G3 X191.677 Y126.905 J0.317
G1 Y127.223
G19 G3 Y127.54 Z-13.183 K0.318
G0 Z5
G17
M9
M30
%
