%
(MiddleDinPlate)
(T1  D=3.175 CR=0 - ZMIN=-13.5 - flat end mill)
G90 G94
G17
G21

(2D Contour1)
M9
T1 M6
S5000 M3
G54
M9
G0 X376.568 Y-222.54
Z5
Z3
G1 Z2.837 F333.3
G19 G3 Y-222.223 Z2.519 J0.317
G1 Y-221.905 F1000
G17 G3 X376.25 Y-221.587 I-0.318
G1 X360.109 Z-3.356
G18 G3 X360 Z-3.375 I-0.109 K0.298
G1 X0
G17 G2 X-1.587 Y-220 J1.587
G1 Y0
G2 X0 Y1.587 I1.587
G1 X720
G2 X721.588 Y0 J-1.587
G1 Y-220
G2 X720 Y-221.587 I-1.588
G1 X360
X296.213 Z-6.75
X0
G2 X-1.587 Y-220 J1.587
G1 Y0
G2 X0 Y1.587 I1.587
G1 X720
G2 X721.588 Y0 J-1.587
G1 Y-220
G2 X720 Y-221.587 I-1.588
G1 X360
X296.213
X232.427 Z-10.125
X0
G2 X-1.587 Y-220 J1.587
G1 Y0
G2 X0 Y1.587 I1.587
G1 X720
G2 X721.588 Y0 J-1.587
G1 Y-220
G2 X720 Y-221.587 I-1.588
G1 X296.213
X232.427
X168.64 Z-13.5
X0
G2 X-1.587 Y-220 J1.587
G1 Y0
G2 X0 Y1.587 I1.587
G1 X720
G2 X721.588 Y0 J-1.587
G1 Y-220
G2 X720 Y-221.587 I-1.588
G1 X232.427
X168.64
G3 X168.323 Y-221.905 J-0.318
G1 Y-222.223
G19 G2 Y-222.54 Z-13.183 K0.318
G0 Z5
G17
M9
M30
%
